static/images/icons/teach.svg

<?xml version="1.0" encoding="UTF-8" standalone="no"?>
<svg width="52px" height="52px" viewBox="0 0 52 52" version="1.1" xmlns="http://www.w3.org/2000/svg" xmlns:xlink="http://www.w3.org/1999/xlink" xmlns:sketch="http://www.bohemiancoding.com/sketch/ns">
    <!-- Generator: Sketch 3.2.1 (9971) - http://www.bohemiancoding.com/sketch -->
    <title>teacher</title>
    <desc>Created with Sketch.</desc>
    <defs></defs>
    <g id="Page-1" stroke="none" stroke-width="1" fill="none" fill-rule="evenodd" sketch:type="MSPage">
        <g id="lesson-plan" sketch:type="MSLayerGroup" transform="translate(12.000000, 17.000000)" fill="#F2FAFF">
            <g id="Main" sketch:type="MSShapeGroup">
                <g id="Make-7">
                    <g id="Start-from-Scratch-+-Choosing-this-option-3-+-Oval-19-+-">
                        <g id="lesson-plan">
                            <path d="M22.7689732,10.015625 L23,14.0714286 C23.0342264,14.6618333 22.6834114,15.2094469 21.9475446,15.7142857 C21.2116779,16.2191245 20.2062936,16.6191391 18.9313616,16.9143415 C17.6564296,17.2095439 16.274561,17.3571429 14.7857143,17.3571429 C13.2968676,17.3571429 11.9149989,17.2095439 10.640067,16.9143415 C9.365135,16.6191391 8.3597507,16.2191245 7.6238839,15.7142857 C6.8880172,15.2094469 6.5372022,14.6618333 6.5714286,14.0714286 L6.8024554,10.015625 L14.1696429,12.3387277 C14.3578878,12.3986238 14.5632429,12.4285714 14.7857143,12.4285714 C15.0081856,12.4285714 15.2135407,12.3986238 15.4017857,12.3387277 L22.7689732,10.015625 L22.7689732,10.015625 Z M29.5714286,5.8571429 C29.5714286,6.0539444 29.4773075,6.1865696 29.2890625,6.2550223 L14.9140625,10.7728795 C14.8798361,10.7814361 14.8370538,10.7857143 14.7857143,10.7857143 C14.7343747,10.7857143 14.6915924,10.7814361 14.6573661,10.7728795 L6.2890625,8.1289063 C5.9211291,8.4198303 5.6173747,8.8968531 5.3777902,9.5599888 C5.1382056,10.2231246 4.9927458,10.9867888 4.9414062,11.8510045 C5.4804714,12.1590417 5.75,12.6253689 5.75,13.25 C5.75,13.8404047 5.5018626,14.2981755 5.0055804,14.6233259 L5.75,20.1808036 C5.7671132,20.3005958 5.7328873,20.4075516 5.6473214,20.5016741 C5.5703121,20.5957966 5.4676346,20.6428571 5.3392857,20.6428571 L2.875,20.6428571 C2.7466511,20.6428571 2.6439736,20.5957966 2.5669643,20.5016741 C2.4813984,20.4075516 2.4471725,20.3005958 2.4642857,20.1808036 L3.2087054,14.6233259 C2.7124231,14.2981755 2.4642857,13.8404047 2.4642857,13.25 C2.4642857,12.6253689 2.7423707,12.1504853 3.2985491,11.8253348 C3.3926716,10.0541206 3.8119382,8.6423044 4.5563616,7.5898438 L0.2823661,6.2550223 C0.0941211,6.1865696 0,6.0539444 0,5.8571429 C0,5.6603413 0.0941211,5.5277161 0.2823661,5.4592634 L14.6573661,0.9414063 C14.6915924,0.9328497 14.7343747,0.9285714 14.7857143,0.9285714 C14.8370538,0.9285714 14.8798361,0.9328497 14.9140625,0.9414063 L29.2890625,5.4592634 C29.4773075,5.5277161 29.5714286,5.6603413 29.5714286,5.8571429 L29.5714286,5.8571429 L29.5714286,5.8571429 Z" id=""></path>
                        </g>
                    </g>
                </g>
            </g>
        </g>
    </g>
</svg>

<?xml version="1.0" encoding="utf-8"?>
<!-- Generator: Adobe Illustrator 17.1.0, SVG Export Plug-In . SVG Version: 6.00 Build 0)  -->
<!DOCTYPE svg PUBLIC "-//W3C//DTD SVG 1.1//EN" "http://www.w3.org/Graphics/SVG/1.1/DTD/svg11.dtd">
<svg version="1.1" id="Layer_1" xmlns:sketch="http://www.bohemiancoding.com/sketch/ns"
	 xmlns="http://www.w3.org/2000/svg" xmlns:xlink="http://www.w3.org/1999/xlink" x="0px" y="0px" viewBox="0 0 52 52"
	 enable-background="new 0 0 52 52" xml:space="preserve">
<title>teacher</title>
<desc>Created with Sketch.</desc>
<g id="Page-1" sketch:type="MSPage">
	<g id="lesson-plan_1_" transform="translate(12.000000, 17.000000)" sketch:type="MSLayerGroup">
		<g id="Main" sketch:type="MSShapeGroup">
			<g id="Make-7">
				<g id="Start-from-Scratch-_x2B_-Choosing-this-option-3-_x2B_-Oval-19-_x2B_-_xF0C3_">
					<g id="lesson-plan">
						<path id="_xF19D_" fill="#F1F1F5" d="M22.8,10l0.2,4.1c0,0.6-0.3,1.1-1.1,1.6c-0.7,0.5-1.7,0.9-3,1.2
							c-1.3,0.3-2.7,0.4-4.1,0.4s-2.9-0.1-4.1-0.4s-2.3-0.7-3-1.2c-0.7-0.5-1.1-1.1-1.1-1.6L6.8,10l7.4,2.3c0.2,0.1,0.4,0.1,0.6,0.1
							s0.4,0,0.6-0.1L22.8,10L22.8,10z M29.6,5.9c0,0.2-0.1,0.3-0.3,0.4l-14.4,4.5c0,0-0.1,0-0.1,0c-0.1,0-0.1,0-0.1,0L6.3,8.1
							C5.9,8.4,5.6,8.9,5.4,9.6C5.1,10.2,5,11,4.9,11.9c0.5,0.3,0.8,0.8,0.8,1.4c0,0.6-0.2,1-0.7,1.4l0.7,5.6c0,0.1,0,0.2-0.1,0.3
							c-0.1,0.1-0.2,0.1-0.3,0.1H2.9c-0.1,0-0.2,0-0.3-0.1c-0.1-0.1-0.1-0.2-0.1-0.3l0.7-5.6c-0.5-0.3-0.7-0.8-0.7-1.4
							c0-0.6,0.3-1.1,0.8-1.4c0.1-1.8,0.5-3.2,1.3-4.2L0.3,6.3C0.1,6.2,0,6.1,0,5.9s0.1-0.3,0.3-0.4l14.4-4.5c0,0,0.1,0,0.1,0
							c0.1,0,0.1,0,0.1,0l14.4,4.5C29.5,5.5,29.6,5.7,29.6,5.9L29.6,5.9L29.6,5.9z"/>
					</g>
				</g>
			</g>
		</g>
	</g>
</g>
</svg>
